src/images/stroke-2.svg

<?xml version="1.0" encoding="UTF-8"?>
<svg width="80px" height="80px" viewBox="0 0 80 80" version="1.1" xmlns="http://www.w3.org/2000/svg" xmlns:xlink="http://www.w3.org/1999/xlink">
    <!-- Generator: Sketch 63.1 (92452) - https://sketch.com -->
    <title>Artboard</title>
    <desc>Created with Sketch.</desc>
    <g id="Artboard" stroke="none" stroke-width="1" fill="none" fill-rule="evenodd">
        <path d="M28,45 C27.7080707,45.0290801 27.5523207,45.0089806 27.4247036,45.0628644 C25.8337704,45.7325627 25.020364,47.2477229 24.0141049,48.5503417 C23.9741481,48.6020872 24.0275598,48.7577514 24.0691474,48.8488407 C24.1506919,49.0237491 24.3105192,49.0374339 24.438544,48.9382193 C25.8056375,47.8767946 27.496055,47.1378172 28,45 M51.4144312,31.2883921 C53.0302804,31.5518447 54.0324749,30.2229831 55.3198511,29.6905547 C55.8799328,29.4585839 56.3112228,28.4312844 56.9216307,29.2950997 C57.4681838,30.0677835 57.190037,31.0812752 56.4594956,31.6982072 C56.0628387,32.0340126 55.6596881,32.236711 55.7197549,32.8978279 C56.6873163,32.9845408 57.4968643,32.4913266 57.9887622,31.8097742 C58.828073,30.6471583 59.7528842,31.1365064 60.2918614,31.7639323 C60.6241224,32.1505504 60.6365687,33.217064 59.9763757,33.8610593 C59.7009346,34.130035 58.8096742,34.2537528 59.7642482,35.0098673 C60.1370948,35.3048017 59.0661753,35.8930135 58.7333732,36.4155002 C58.564537,36.6806098 58.1500224,36.7700842 57.91192,37.0070259 C57.6705708,37.2478337 57.7160267,37.544425 57.9822685,37.7896513 C58.3767608,38.1530724 58.4508972,37.7576173 58.5823946,37.5267511 C59.3378285,36.2083834 60.5759608,35.3992469 61.7772954,34.2907577 C62.4899791,35.7737142 61.3151604,36.4392496 60.7318096,37.2456245 C59.5732251,38.8467757 58.1467755,40.1933112 56.609933,41.4183383 C56.4356854,41.5569685 56.2922828,41.797224 56.4183688,42.1567788 C57.5915641,41.8911169 58.3210232,40.9057931 59.3762496,40.0872674 C59.4769019,41.6729539 58.2317348,42.0490781 57.5547665,42.6638008 C55.5471306,44.4858766 53.3814814,46.1290035 51.2439716,47.7969844 C50.5529336,48.3360405 50.4241419,48.9584956 50.546981,49.7709459 C50.8992643,52.1011483 51.2542533,54.4324554 51.5269887,56.7731518 C51.6904135,58.1782324 51.7640088,59.5982254 50.1741344,60.3946586 C49.7812655,60.5912815 49.6129704,61.3545761 49.164905,60.4123326 C48.9338375,59.9262984 48.5685668,60.4405005 48.336417,60.6078509 C47.6415911,61.1099021 47.1875731,61.288851 46.8975212,60.1626878 C46.648596,59.1944856 46.1999895,58.1804416 44.9201893,59.2546876 C44.7610936,59.388347 44.3904115,59.4419212 44.2156227,59.3463713 C42.7464229,58.5438626 40.7425751,58.9348992 39.6803139,57.2348842 C39.2896095,56.6091152 38.7793129,56.5323439 38.1791867,56.9145435 C36.8961396,57.7314123 35.5914469,56.9625946 34.3002827,56.9338744 C33.919319,56.9255897 34.1260351,56.4185677 34.2137001,56.1749983 C34.4588373,55.4939982 34.7597121,54.8345382 35.1471696,53.9049979 C33.6590298,54.5489931 32.2217573,54.3120515 31.0518089,55.3586819 C30.6454115,55.7226552 29.6572867,55.4553364 28.9424384,55.3912683 C28.6680796,55.3669665 28.3920973,55.1233972 28.6983835,54.7439591 C29.2606298,54.0485989 29.2400664,53.0516765 29.9879243,52.4236983 C29.2227499,51.9514719 28.688643,52.0779512 28.2367896,52.6932263 C28.1193619,52.852292 27.9765004,52.9925792 27.8460853,53.1417033 C26.0197319,55.2244702 25.0142906,55.2747305 22.9812211,53.3803019 C22.8399831,53.249404 22.5823996,53.080949 22.5997162,52.963859 C22.8329483,51.4046835 21.7306426,50.3210482 20.9909018,49.3357244 C20.086654,48.1305806 19.540642,46.8359623 19.0790481,45.4877698 C18.7743853,44.5957866 19.4064388,43.8054288 20.0190112,43.1719274 C22.4189748,40.6926009 25.1360475,38.6567805 28.2909038,37.2936756 C29.6004668,36.7275562 30.0961526,36.175797 29.4803333,34.5575241 C28.3444768,31.5750417 27.5214002,28.4539292 27.77249,25.1770647 C28.06633,21.3423656 31.9560568,18.3532555 35.6341971,19.1209685 C36.0102906,19.1993968 36.4897422,19.2225939 36.6347682,19.6417983 C36.8008987,20.1195478 36.2949312,20.3029152 36.0438414,20.5779664 C35.3858131,21.298733 34.5557016,21.9123511 34.6379552,23.2627529 C35.5221808,22.9567723 35.7938339,22.1719375 36.244605,21.6002951 C37.3685564,20.1736743 39.6164591,20.4271853 40.2474304,22.1448743 C40.4822859,22.7822418 40.8940948,22.6369839 41.2626123,22.7546262 C42.6143843,23.1843246 43.2729538,24.3844976 42.719907,25.4626098 C43.4996922,25.7906828 45.1599151,25.5581597 43.8178836,27.2504423 C43.73563,27.3537245 43.7448294,27.5321212 43.7123609,27.6757222 C45.3828655,27.8773159 44.098195,29.0957152 44.4023166,29.7684307 C44.7670462,30.5759101 45.3000708,30.1158346 45.7649115,29.9385426 C47.9132442,29.1200169 49.936032,27.9877782 52.1379377,27.2891041 C52.6953137,27.1123644 53.3333198,26.9267877 53.6525934,27.3327367 C54.1553141,27.9728658 53.2478194,28.1683841 53.0102582,28.592007 C52.5134901,29.4784671 51.3484119,29.9170025 51.4144312,31.2883921" id="Fill-526" fill="#FEE0E0"></path>
    </g>
</svg>

<svg width="80" height="80" xmlns="http://www.w3.org/2000/svg"><path d="M28 45c-.292.03-.448.009-.575.063-1.591.67-2.405 2.185-3.41 3.487-.04.052.013.208.054.299.082.175.242.188.37.09C25.806 47.876 27.496 47.137 28 45m23.414-13.712c1.616.264 2.618-1.065 3.906-1.597.56-.232.991-1.26 1.602-.396.546.773.268 1.786-.463 2.403-.396.336-.8.539-.74 1.2.968.087 1.778-.407 2.27-1.088.84-1.163 1.764-.673 2.303-.046.332.387.345 1.453-.316 2.097-.275.269-1.166.393-.212 1.149.373.295-.698.883-1.03 1.406-.17.265-.584.354-.822.591-.241.24-.196.537.07.783.395.363.469-.032.6-.263.756-1.319 1.994-2.128 3.195-3.236.713 1.483-.462 2.148-1.045 2.955-1.159 1.6-2.585 2.947-4.122 4.172-.174.139-.318.38-.192.739 1.174-.266 1.903-1.251 2.958-2.07.1 1.586-1.144 1.962-1.821 2.577-2.008 1.822-4.174 3.465-6.311 5.133-.691.539-.82 1.161-.697 1.974.352 2.33.707 4.661.98 7.002.163 1.405.237 2.825-1.353 3.622-.393.196-.561.96-1.01.017-.23-.486-.595.029-.828.196-.694.502-1.148.68-1.438-.445-.25-.969-.698-1.983-1.978-.908-.159.133-.53.187-.704.091-1.47-.802-3.473-.411-4.536-2.111-.39-.626-.9-.703-1.5-.32-1.284.816-2.589.048-3.88.019-.38-.008-.174-.515-.086-.759.245-.681.546-1.34.933-2.27-1.488.644-2.925.407-4.095 1.454-.407.364-1.395.096-2.11.032-.274-.024-.55-.268-.244-.647.563-.695.542-1.692 1.29-2.32-.765-.473-1.3-.346-1.751.27-.118.158-.26.299-.39.448-1.827 2.082-2.833 2.133-4.866.238-.141-.13-.399-.3-.381-.416.233-1.56-.87-2.643-1.61-3.628-.903-1.205-1.45-2.5-1.911-3.848-.305-.892.327-1.683.94-2.316 2.4-2.48 5.117-4.515 8.272-5.878 1.31-.566 1.805-1.118 1.19-2.736-1.137-2.983-1.96-6.104-1.709-9.38.294-3.836 4.184-6.825 7.862-6.057.376.078.856.102 1 .52.167.479-.34.662-.59.937-.658.72-1.488 1.334-1.406 2.685.884-.306 1.156-1.091 1.607-1.663 1.124-1.426 3.371-1.173 4.002.545.235.637.647.492 1.016.61 1.351.43 2.01 1.63 1.457 2.708.78.328 2.44.095 1.098 1.787-.082.104-.073.282-.106.426 1.67.201.386 1.42.69 2.092.365.808.898.348 1.363.17 2.148-.818 4.171-1.95 6.373-2.649.557-.177 1.195-.362 1.515.044.502.64-.405.835-.643 1.259-.497.886-1.662 1.325-1.596 2.696" fill="#FEE0E0" fill-rule="evenodd"/></svg>
